X:6911
T:The Hills and Dales of Cork
O:england
R:Fling
S:Andy Dickson, Belfast (fiddle)
D:Private tape
N:As played
H:There is an American tune with exactly the same first part.
M:4/4
K:A
af || ec(3.c.c.c ec(3.c.c.c | BABc d2af | ec(3.c.c.c ec(3.c.c.c \
|1 BABc A2 (3.a.g.f :|2 BABc A2 {d}cB ||
ABce a2a2 | (3fafdf +e3c3+c | de{a}fe cdec \
|1 {Bd}BABc d2{cd}cB :|2 {Bd}BABc A2af || A4


